images/icons/rss-icon.svg

<svg width="47" height="47" viewBox="0 0 47 47" fill="none" xmlns="http://www.w3.org/2000/svg">
<path d="M7.025 46.3333C10.5366 46.3333 13.3833 43.4866 13.3833 39.975C13.3833 36.4634 10.5366 33.6166 7.025 33.6166C3.51339 33.6166 0.666664 36.4634 0.666664 39.975C0.666664 43.4866 3.51339 46.3333 7.025 46.3333Z" fill="#CCCCCC"/>
<path d="M0.666664 0.949829V9.204C21.1708 9.204 37.7958 25.829 37.7958 46.3332H46.05C46.05 21.279 25.7208 0.949829 0.666664 0.949829ZM0.666664 17.4582V25.7123C12.0417 25.7123 21.2875 34.9582 21.2875 46.3332H29.5417C29.5417 30.379 16.6208 17.4582 0.666664 17.4582Z" fill="#CCCCCC"/>
</svg>

<svg xmlns="http://www.w3.org/2000/svg" width="47" height="47" fill="none"><path fill="#CCC" d="M7.025 46.333a6.358 6.358 0 1 0 0-12.716 6.358 6.358 0 0 0 0 12.716Z"/><path fill="#CCC" d="M.667.95v8.254c20.504 0 37.129 16.625 37.129 37.13h8.254C46.05 21.278 25.72.95.667.95Zm0 16.508v8.254c11.375 0 20.62 9.246 20.62 20.621h8.255c0-15.954-12.921-28.875-28.875-28.875Z"/></svg>
